X:1
T: Captain Jinks
C:
R:Jig
Q:180
K:D
M:6/8
L:1/16
|:B2|d4D2 D4D2|E4D2 G6|A4G2 E4F2|G4A2 B4c2|
d4D2 D4D2|E4D2 G6|A4G2 E4F2|G6 G4:|
|:B2|=c4c2 c4A2|B4B2 B4G2|A4A2 A4F2|G4B2 d6|
=c4c2 c4A2|B4B2 B4G2|A4A2 A2B2c2|d6 d4:|
